sharp/svg/view_comfy.svg

<svg xmlns="http://www.w3.org/2000/svg" width="24" height="24"><path fill="none" d="M0 0h24v24H0V0z"/><g fill="currentColor"><path d="M3 9h4V5H3v4zm0 5h4v-4H3v4zm5 0h4v-4H8v4zm5 0h4v-4h-4v4zM8 9h4V5H8v4zm5-4v4h4V5h-4zm5 9h4v-4h-4v4zM3 19h4v-4H3v4zm5 0h4v-4H8v4zm5 0h4v-4h-4v4zm5 0h4v-4h-4v4zm0-14v4h4V5h-4z"/></g></svg>

<?xml version="1.0" encoding="utf-8"?>
<!-- Generator: Adobe Illustrator 19.1.0, SVG Export Plug-In . SVG Version: 6.00 Build 0)  -->
<svg version="1.1" xmlns="http://www.w3.org/2000/svg" xmlns:xlink="http://www.w3.org/1999/xlink" x="0px" y="0px" width="24px"
	 height="24px" viewBox="0 0 24 24" enable-background="new 0 0 24 24" xml:space="preserve">
<g id="Bounding_Boxes">
	<g id="ui_x5F_spec_x5F_header_copy_2">
	</g>
	<path fill="none" d="M0,0h24v24H0V0z"/>
</g>
<g id="Sharp" fill="currentColor">
	<g id="ui_x5F_spec_x5F_header_copy_4">
	</g>
	<path d="M3,9h4V5H3V9z M3,14h4v-4H3V14z M8,14h4v-4H8V14z M13,14h4v-4h-4V14z M8,9h4V5H8V9z M13,5v4h4V5H13z M18,14h4v-4h-4V14z
		 M3,19h4v-4H3V19z M8,19h4v-4H8V19z M13,19h4v-4h-4V19z M18,19h4v-4h-4V19z M18,5v4h4V5H18z"/>
</g>
</svg>
